www/assets/icons/call_missed_outgoing.svg

<svg width="24" height="24" viewBox="0 0 24 24" xmlns="http://www.w3.org/2000/svg" fill='currentColor'><path d="M3 8.20504L12 17.205L19 10.205V14.795H21V6.79504H13V8.79504H17.59L12 14.385L4.41 6.79504L3 8.20504Z"/></svg>

<svg xmlns="http://www.w3.org/2000/svg" width="24" height="24" viewBox="0 0 24 24" fill='currentColor'><path d="m3 8.205 9 9 7-7v4.59h2v-8h-8v2h4.59L12 14.385l-7.59-7.59z"/></svg>
